public/assets/imgs/drill-icon.svg

<svg fill="none" height="206" viewBox="0 0 205 206" width="205" xmlns="http://www.w3.org/2000/svg"><path clip-rule="evenodd" d="m47.5925.565447c.5678-.369028 1.2304-.565447 1.9075-.565447h34c.6197 0 1.2283.164529 1.7635.476774l16.3255 9.523226h14.911c2.792 0 5.203 1.6351 6.326 4h23.674c3.866 0 7 3.134 7 7v1h10c3.171 0 5.85 2.1085 6.71 5h10.29c3.866 0 7 3.134 7 7h14c1.933 0 3.5 1.567 3.5 3.5s-1.567 3.5-3.5 3.5h-14c0 3.866-3.134 7-7 7h-10.29c-.86 2.8915-3.539 5-6.71 5h-10v1c0 3.866-3.134 7-7 7h-23.674c-1.123 2.3649-3.534 4-6.326 4h-13.044l-2.975 4.8343c-.6062.9848-1.6595 1.6067-2.8145 1.6617l-10.5.5c-.0328.0016-.0656.0027-.0984.0033-.0227.0005-.0454.0007-.0681.0007-.5399 0-.9159.169-1.351.7513-.5342.7149-1.0328 1.952-1.3374 3.7185-.6041 3.5033-.2336 7.8049.5336 10.4987.3991 1.2211.8552 3.1973.6917 5.0837-.0836.9648-.362 2.3087-1.2911 3.4737-1.0586 1.3276-2.5992 1.9741-4.2458 1.9741-7.1739 0-9.6666 4.781-10.0751 6.721-.0196.093-.0429.185-.07.276l-10.9344 36.78c-.2526 1.678-.2688 3.959.2694 5.677.2694.859.6077 1.354.9034 1.617.2127.189.5481.396 1.235.425l.2029.004h28.4688c3.1871 0 9.4609 2.079 15.559 8.612 5.719 6.128 10.548 12.416 12.289 14.854.424.593.652 1.305.652 2.034v16c0 .873-.326 1.715-.915 2.36l-10.5 11.5c-.663.726-1.602 1.14-2.585 1.14h-78.5c-.4364 0-.869-.082-1.2754-.241-2.1794-.852-5.4006-2.5-8.1467-4.778-2.6236-2.176-5.5779-5.573-5.5779-9.981v-32.5c0-.765.2506-1.509.7134-2.118l8.6745-11.414c-.9103-10.694-.9211-34.21 5.7984-53.5949.1298-.3893.257-.7679.381-1.1367l.0016-.0048.0004-.0012c1.1639-3.4628 2.0377-6.0626 1.9938-8.4793-.0218-1.2004-.2848-2.2708-.8894-3.3051-.6182-1.0577-1.6993-2.2566-3.6152-3.5338-3.4829-2.322-6.068-3.7221-7.8348-4.5273-.8848-.4032-1.5353-.6438-1.9686-.7772-.2409-.0741-.3739-.1024-.4181-.1115-.3209-.015-.6385-.0741-.9438-.1758-4.41683-1.4723-12.8932-7.2364-12.8932-18.8204v-29.5c0-.1656.0117552-.331.0351768-.495.3156682-2.2097 1.3207332-5.4287 3.4157532-8.1853 2.17406-2.86059 5.62872-5.3197 10.54907-5.3197h24.4625zm4.8543 148.273553c-.9363-3.159-.7753-6.657-.3992-8.914.0238-.143.0563-.284.0975-.422l10.1972-34.3c-1.1495-.976-2.1776-2.31-3.0111-3.915-1.6925-3.2603-2.8312-8.0296-2.8312-14.788 0-7.5716 3.363-12.9099 7.6162-16.3377 4.1302-3.3285 9.0647-4.8478 12.5849-5.1495.0994-.0085.1991-.0128.2989-.0128h9.9167l8.571-.4081 2.5123-4.0825v-44.4991l-15.4462-9.0103h-32.0163l-9.13 5.9346c-.5678.369-1.2304.5654-1.9075.5654h-25.5c-2.2796 0-3.825 1.0409-4.97593 2.5553-1.16136 1.5281-1.80113 3.424-2.02407 4.717v29.2277c0 7.2981 5.0721 11.0026 7.7686 12.0569.5361.0746 1.0682.2136 1.5451.3604.7854.2416 1.7224.601 2.8126 1.0978 2.1832.9948 5.0981 2.5947 8.8152 5.0727 2.5841 1.7228 4.503 3.6489 5.7754 5.8256 1.2861 2.2001 1.8043 4.4734 1.845 6.7105.0677 3.722-1.2394 7.562-2.3366 10.7852l-.0016.0047-.0011.0033c-.1385.4069-.2736.804-.4022 1.1897l-.0138.0404c-6.5643 18.9208-6.299 42.5788-5.3252 51.9928.0915.884-.1569 1.77-.6948 2.478l-.574.755zm-31.4842 6.442 40.1816.713c.1178.004.2364.006.3558.006h28.5c.8129 0 5.3391.921 10.441 6.388 4.863 5.21 9.062 10.556 11.059 13.252v3.86h-93.5v-20.321zm-2.9626 31.219v4c0 1.192.879 2.795 3.0471 4.594 1.8174 1.507 4.0163 2.704 5.6441 3.406h76.2648l8.544-9.357v-2.643zm60.252-114.5h-1.0916c-2.3153.2287-5.7976 1.3125-8.6516 3.6127-2.7884 2.2472-5.0088 5.6589-5.0088 10.8873 0 5.6663.9042 9.1533 1.8546 11.1788 2.3447-3.4043 6.5218-6.7016 13.1629-7.1315-.0086-.0616-.0183-.1252-.0293-.1907-.077-.4625-.1953-.9099-.3086-1.2498-.0069-.0208-.0136-.0416-.0202-.0625-.0074-.0236-.0145-.0473-.0214-.0711-1.0547-3.6437-1.5244-9.055-.7246-13.693.1872-1.0857.4559-2.2008.8386-3.2802zm.2921 19.5789s.0011-.0079.0052-.022c-.0029.0152-.0052.022-.0052.022zm-57.0441-64.5789h9c.5523 0 1 .4477 1 1v20.0557c0 .7434-.7823 1.2269-1.4472.8945l-9-4.5c-.3388-.1694-.5528-.5157-.5528-.8945v-15.5557c0-.5523.4477-1 1-1zm-8 1c0-4.4183 3.5817-8 8-8h9c4.4183 0 8 3.5817 8 8v20.0557c0 5.9471-6.2585 9.8151-11.5777 7.1554l-9-4.5c-2.7103-1.3551-4.4223-4.1252-4.4223-7.1554zm38-7.5c-1.933 0-3.5 1.567-3.5 3.5s1.567 3.5 3.5 3.5h34.5c1.933 0 3.5-1.567 3.5-3.5s-1.567-3.5-3.5-3.5zm0 13.5c-1.933 0-3.5 1.567-3.5 3.5s1.567 3.5 3.5 3.5h34.5c1.933 0 3.5-1.567 3.5-3.5s-1.567-3.5-3.5-3.5zm0 13.5c-1.933 0-3.5 1.567-3.5 3.5s1.567 3.5 3.5 3.5h34.5c1.933 0 3.5-1.567 3.5-3.5s-1.567-3.5-3.5-3.5zm54-30.5h7.5c3.866 0 7 3.134 7 7v27c0 3.866-3.134 7-7 7h-7.5v-7h4.5c1.933 0 3.5-1.567 3.5-3.5s-1.567-3.5-3.5-3.5h-4.5v-13.5h4.5c1.933 0 3.5-1.567 3.5-3.5s-1.567-3.5-3.5-3.5h-4.5zm75 17v1.6962 1.8038 1.8038 1.6962h-10v-7zm-17 12v-17h-10v17zm-17-25v1 31 1h-20v-20h11c1.933 0 3.5-1.567 3.5-3.5s-1.567-3.5-3.5-3.5h-11v-6z" fill="#000" fill-rule="evenodd"/></svg>

<svg width="205" height="206" viewBox="0 0 205 206" fill="none" xmlns="http://www.w3.org/2000/svg">
<path fill-rule="evenodd" clip-rule="evenodd" d="M47.5925 0.565447C48.1603 0.196419 48.8229 0 49.5 0H83.5C84.1197 0 84.7283 0.164529 85.2635 0.476774L101.589 10H116.5C119.292 10 121.703 11.6351 122.826 14H146.5C150.366 14 153.5 17.134 153.5 21V22H163.5C166.671 22 169.35 24.1085 170.21 27H180.5C184.366 27 187.5 30.134 187.5 34H201.5C203.433 34 205 35.567 205 37.5C205 39.433 203.433 41 201.5 41H187.5C187.5 44.866 184.366 48 180.5 48H170.21C169.35 50.8915 166.671 53 163.5 53H153.5V54C153.5 57.866 150.366 61 146.5 61H122.826C121.703 63.3649 119.292 65 116.5 65H103.456L100.481 69.8343C99.8748 70.8191 98.8215 71.441 97.6665 71.496L87.1665 71.996C87.1337 71.9976 87.1009 71.9987 87.0681 71.9993C87.0454 71.9998 87.0227 72 87 72C86.4601 72 86.0841 72.169 85.649 72.7513C85.1148 73.4662 84.6162 74.7033 84.3116 76.4698C83.7075 79.9731 84.078 84.2747 84.8452 86.9685C85.2443 88.1896 85.7004 90.1658 85.5369 92.0522C85.4533 93.017 85.1749 94.3609 84.2458 95.5259C83.1872 96.8535 81.6466 97.5 80 97.5C72.8261 97.5 70.3334 102.281 69.9249 104.221C69.9053 104.314 69.882 104.406 69.8549 104.497L58.9205 141.277C58.6679 142.955 58.6517 145.236 59.1899 146.954C59.4593 147.813 59.7976 148.308 60.0933 148.571C60.306 148.76 60.6414 148.967 61.3283 148.996L61.5312 149H90C93.1871 149 99.4609 151.079 105.559 157.612C111.278 163.74 116.107 170.028 117.848 172.466C118.272 173.059 118.5 173.771 118.5 174.5V190.5C118.5 191.373 118.174 192.215 117.585 192.86L107.085 204.36C106.422 205.086 105.483 205.5 104.5 205.5H26C25.5636 205.5 25.131 205.418 24.7246 205.259C22.5452 204.407 19.324 202.759 16.5779 200.481C13.9543 198.305 11 194.908 11 190.5V158C11 157.235 11.2506 156.491 11.7134 155.882L20.3879 144.468C19.4776 133.774 19.4668 110.258 26.1863 90.8731C26.3161 90.4838 26.4433 90.1052 26.5673 89.7364L26.5689 89.7316L26.5693 89.7304C27.7332 86.2676 28.607 83.6678 28.5631 81.2511C28.5413 80.0507 28.2783 78.9803 27.6737 77.946C27.0555 76.8883 25.9744 75.6894 24.0585 74.4122C20.5756 72.0902 17.9905 70.6901 16.2237 69.8849C15.3389 69.4817 14.6884 69.2411 14.2551 69.1077C14.0142 69.0336 13.8812 69.0053 13.837 68.9962C13.5161 68.9812 13.1985 68.9221 12.8932 68.8204C8.47637 67.3481 0 61.584 0 50V20.5C0 20.3344 0.0117552 20.169 0.0351768 20.005C0.350845 17.7953 1.35591 14.5763 3.45093 11.8197C5.62499 8.95911 9.07965 6.5 14 6.5H38.4625L47.5925 0.565447ZM52.4468 148.839C51.5105 145.68 51.6715 142.182 52.0476 139.925C52.0714 139.782 52.1039 139.641 52.1451 139.503L62.3423 105.203C61.1928 104.227 60.1647 102.893 59.3312 101.288C57.6387 98.0277 56.5 93.2584 56.5 86.5C56.5 78.9284 59.863 73.5901 64.1162 70.1623C68.2464 66.8338 73.1809 65.3145 76.7011 65.0128C76.8005 65.0043 76.9002 65 77 65H86.9167L95.4877 64.5919L98 60.5094V16.0103L82.5538 7H50.5375L41.4075 12.9346C40.8397 13.3036 40.1771 13.5 39.5 13.5H14C11.7204 13.5 10.175 14.5409 9.02407 16.0553C7.86271 17.5834 7.22294 19.4793 7 20.7723V50C7 57.2981 12.0721 61.0026 14.7686 62.0569C15.3047 62.1315 15.8368 62.2705 16.3137 62.4173C17.0991 62.6589 18.0361 63.0183 19.1263 63.5151C21.3095 64.5099 24.2244 66.1098 27.9415 68.5878C30.5256 70.3106 32.4445 72.2367 33.7169 74.4134C35.003 76.6135 35.5212 78.8868 35.5619 81.1239C35.6296 84.8459 34.3225 88.6859 33.2253 91.9091L33.2237 91.9138L33.2226 91.9171C33.0841 92.324 32.949 92.7211 32.8204 93.1068L32.8066 93.1472C26.2423 112.068 26.5076 135.726 27.4814 145.14C27.5729 146.024 27.3245 146.91 26.7866 147.618L26.2126 148.373L52.4468 148.839ZM20.9626 155.281L61.1442 155.994C61.262 155.998 61.3806 156 61.5 156H90C90.8129 156 95.3391 156.921 100.441 162.388C105.304 167.598 109.503 172.944 111.5 175.64V179.5H18V159.179L20.9626 155.281ZM18 186.5V190.5C18 191.692 18.879 193.295 21.0471 195.094C22.8645 196.601 25.0634 197.798 26.6912 198.5H102.956L111.5 189.143V186.5H18ZM78.252 72H77.1604C74.8451 72.2287 71.3628 73.3125 68.5088 75.6127C65.7204 77.8599 63.5 81.2716 63.5 86.5C63.5 92.1663 64.4042 95.6533 65.3546 97.6788C67.6993 94.2745 71.8764 90.9772 78.5175 90.5473C78.5089 90.4857 78.4992 90.4221 78.4882 90.3566C78.4112 89.8941 78.2929 89.4467 78.1796 89.1068C78.1727 89.086 78.166 89.0652 78.1594 89.0443C78.152 89.0207 78.1449 88.997 78.138 88.9732C77.0833 85.3295 76.6136 79.9182 77.4134 75.2802C77.6006 74.1945 77.8693 73.0794 78.252 72ZM78.5441 91.5789C78.5441 91.5789 78.5452 91.571 78.5493 91.5569C78.5464 91.5721 78.5441 91.5789 78.5441 91.5789ZM21.5 27H30.5C31.0523 27 31.5 27.4477 31.5 28V48.0557C31.5 48.7991 30.7177 49.2826 30.0528 48.9502L21.0528 44.4502C20.714 44.2808 20.5 43.9345 20.5 43.5557V28C20.5 27.4477 20.9477 27 21.5 27ZM13.5 28C13.5 23.5817 17.0817 20 21.5 20H30.5C34.9183 20 38.5 23.5817 38.5 28V48.0557C38.5 54.0028 32.2415 57.8708 26.9223 55.2111L17.9223 50.7111C15.212 49.356 13.5 46.5859 13.5 43.5557V28ZM51.5 20.5C49.567 20.5 48 22.067 48 24C48 25.933 49.567 27.5 51.5 27.5H86C87.933 27.5 89.5 25.933 89.5 24C89.5 22.067 87.933 20.5 86 20.5H51.5ZM51.5 34C49.567 34 48 35.567 48 37.5C48 39.433 49.567 41 51.5 41H86C87.933 41 89.5 39.433 89.5 37.5C89.5 35.567 87.933 34 86 34H51.5ZM51.5 47.5C49.567 47.5 48 49.067 48 51C48 52.933 49.567 54.5 51.5 54.5H86C87.933 54.5 89.5 52.933 89.5 51C89.5 49.067 87.933 47.5 86 47.5H51.5ZM105.5 17H113C116.866 17 120 20.134 120 24V51C120 54.866 116.866 58 113 58H105.5V51H110C111.933 51 113.5 49.433 113.5 47.5C113.5 45.567 111.933 44 110 44H105.5V30.5H110C111.933 30.5 113.5 28.933 113.5 27C113.5 25.067 111.933 23.5 110 23.5H105.5V17ZM180.5 34V35.6962C180.5 36.5 180.5 37.5 180.5 37.5C180.5 37.5 180.5 38.5 180.5 39.3038V41H170.5V34H180.5ZM163.5 46V29H153.5V46H163.5ZM146.5 21V22V53V54H126.5V34H137.5C139.433 34 141 32.433 141 30.5C141 28.567 139.433 27 137.5 27H126.5V21H146.5Z" fill="black"/>
</svg>
